build/svg/svx/res/marker-anchor.svg

<svg height="22" viewBox="0 0 22 22" width="22" xmlns="http://www.w3.org/2000/svg"><g fill="#232629"><path d="m0 .00026h22v22h-22z" opacity=".2"/><path d="m11 3.0003c-1.1045687 0-1.9999997.8954-1.9999997 2 0 .932.637301 1.7155 1.4999997 1.9375v2.0625h-2.4999997v1h2.4999997v7.9687c-2.5390397-.1627-4.7483927-1.5121-6.0937497-3.5l.1875-.094.90625-.5-.5-.875c.000019 0-3 1.625-3 1.625l.5.875 1.03125-.5625c1.604162 2.4357 4.335597 4.0625 7.4687497 4.0625 3.133153 0 5.863905-1.6268 7.46875-4.0625l1.03125.5625.5-.875c.000014-.0006-3-1.625-3-1.625l-.5.875.90625.5.1875.094c-1.345357 1.9879-3.554711 3.3373-6.09375 3.5v-7.9687h2.5v-1h-2.5v-2.0625c.862699-.222 1.5-1.0055 1.5-1.9375 0-1.1046-.895431-2-2-2zm0 1c.552285 0 1 .4477 1 1s-.447715 1-1 1-1-.4477-1-1 .447715-1 1-1z" fill-rule="evenodd" opacity=".8"/></g></svg>

<svg height="22" width="22" xmlns="http://www.w3.org/2000/svg"><g fill="#232629"><path d="M0 0h22v22H0z" opacity=".2"/><path d="M11 3a2 2 0 00-.5 3.938V9H8v1h2.5v7.969a7.968 7.968 0 01-6.094-3.5l.188-.094.906-.5L5 13l-3 1.625.5.875 1.031-.562C5.135 17.373 7.867 19 11 19s5.864-1.627 7.469-4.063l1.031.563.5-.875L17 13l-.5.875.906.5.188.094a7.968 7.968 0 01-6.094 3.5V10H14V9h-2.5V6.938A2.001 2.001 0 0011 3zm0 1a1 1 0 110 2 1 1 0 010-2z" fill-rule="evenodd" opacity=".8"/></g></svg>
